X:12
T:Merrily danced the quaker's wife
R:
C:Niel Gow
O:Scotland
B:(n460) Gow Collection of Scottish Dance Music - Oak Publications
Z:transcription (livre) : <anamnese@laposte.net>
M:6/8
L:1/8
Q:1/4=130
K:G
~G>AB D2 B | {B}A2 G E2 D | G>AB D2 D | E3 G3 | ~G>AB D2 B |\
{B}A2 G !trill!E2 D | ~G>AB D2 D | !trill!E3 G3 :: 
dcB edc | dcB ABc | dcB efg | !trill!B3 d3-|dcB gfe |\
dcB {B}A2 G | GAB D2D | !trill!E3 G3 :|
